X:1
T:Jesus Is Passing This Way
T:Jesus Is Passing This Way
T:William Howard Doane
T:Frances Jane (Fanny) Crosby, 1895
T:Public Domain Courtesy of the Cyber Hymnal™
C:William Howard Doane
Z:Public Domain
Z:Courtesy of the Cyber Hymnal™
%%score ( 1 2 ) 3
L:1/8
Q:1/4=95
M:6/8
K:G
V:1 treble 
V:2 treble 
V:3 bass 
V:1
 [GB][G^A][GB] [Gc][GB][F=A] | [DG]3 [B,D]3 | [B,G][B,G][B,G] [^CG][CF][CG] | [DA]3- [DA]2 z | %4
w: 1.~Is there a heart that is|wait- ing,|Long- ing for par- don to-|day? *|
w: 2.~Is there a heart that has|wan- dered?|Come with thy bur- den to-|day; *|
w: 3.~Is there a heart that is|brok- en?|Wear- y and sigh- ing for|rest? *|
w: 4.~Come to thy on- ly Re-|deem- er,|Come to His in- fi- nite|love; *|
 [GB][G^A][GB] [Gc][GB][F=A] | [EG]3 !fermata![Gc]3 |"^riten." [GB][GB][GB] [FA]G[FA] | G3- G2 z || %8
w: Hear the glad mes- sage pro-|claim- ing,|Je- sus is pass- ing this|way. *|
w: Mer- cy is ten- der- ly|plead- ing,|Je- sus is pass- ing this|way. *|
w: Come to the arms of the|Sav- ior,|Pil- low thy head on His|breast. *|
w: Come to the gate that is|lead- ing|Home- ward to man- sions a-|bove. *|
"^Refrain" [GB][Gc][Gd] [Ge][Ge][Ge] | ([Gd]3 [GB]2) [GB] | ([Ac]3 [FA]2) [Fd] | [G-d]3 [GB]2 z | %12
w: ||||
w: Je- sus is pass- ing this|way, * This|way, * to-|day; *|
w: ||||
w: ||||
 [GB][Gc][Gd] [Ge][Ge][Ge] | ([Gd]3 [GB]2) [Gc] |"^riten." [GB][GB][GB] [FA]2 G | [DG]3- [DG]2 |] %16
w: ||||
w: Je- sus is pass- ing this|way, * Is|pass- ing this way to-|day. *|
w: ||||
w: ||||
V:2
 x6 | x6 | x6 | x6 | x6 | x6 | x4 G x | G3- G2 x || x6 | x6 | x6 | x6 | x6 | x6 | x5 G | x5 |] %16
V:3
 [G,D][G,^C][G,D] [G,E][G,D][D,=C] | [G,,B,]3 [G,,G,]3 | [E,G,][E,G,][E,G,] [A,,A,][A,,A,][A,,A,] | %3
w: ~ ~ ~ ~ ~ ~|~ ~|~ ~ ~ ~ ~ ~|
 [D,F,]3- [D,F,]2 z | [G,D][G,^C][G,D] [G,E][G,D][D,=C] | [E,B,]3 [C,E]3 | %6
w: ~ *|~ ~ ~ ~ ~ ~|~ ~|
 [D,D][D,D][D,D] [D,C][D,B,][D,C] | [G,,B,]3- [G,,B,]2 z || [G,D][G,A,][G,B,] [C,C][C,C][E,C] | %9
w: ~ ~ ~ ~ ~ ~|~ *|Je- sus is pass- ing, is|
 [G,B,][G,B,][G,B,] [G,D]2 [G,D] | [D,D][D,D][D,D] [D,D]2 [D,C] | [G,B,][G,B,][G,B,] [G,D]2 z | %12
w: pass- ing this way, Is|pass- ing this way, Is|pass- ing to- day;|
 [G,D][G,A,][G,B,] [C,C][C,C][E,C] | [G,B,]2 [G,B,] [G,D]2 [C,E] | [D,D][D,D][D,D] [D,C]2 [G,,B,] | %15
w: ~ ~ ~ ~ ~ ~|way to- day, *||
 [G,,B,]3- [G,,B,]2 |] %16
w: |

